X:1
T:James Gibb editions
T:Pascha nostrum - Ravanello
T:#
%%score { 1 | 2 } 3
L:1/8
Q:1/4=100
M:4/4
K:G
V:1 treble nm="Soprano I" snm="S"
V:2 treble 
V:3 treble nm="Alto" snm="A"
V:1
"^Pascha nostrum, op.66/12""^Oreste Ravanello\n (1871-1938)""^semplice"!pp! d4 d4 | g4"^," d2 d2- | %2
w: Pas- cha|no- strum im\-|
 d2 d2 d3 A |"^," B2 (B4 e2) | d4!f! d2 d2 |[M:4/4] (BABG)"^," A2 d2- | d2 g2 e4 | !fermata!d8 | %8
w: * mo- la- tus|est Chri\- *|stus, Al- le-|lu\- * * * ia, Al\-|* le- lu-|ia:|
"^meno"[Q:1/4=90] d3 d d2 dc | (B6 A2) |[Q:1/4=90]"^,"[Q:1/4=90] B2 B2 B2 A2 | G2 G2 A2 B2 | %12
w: i- ta- que e- pu-|le\- *|mur in a- zy-|mis sin- ce- ri-|
 (c6 B2) |"^," A2 A2 B2 c2 | (d2 B2 A2 d2- | d2 ^cB c4) | !fermata!d4 z4 | z4!ff! d2 d2 | %18
w: ta\- *|tis et ve- ri-|ta\- * * *||tis,|Al- le-|
 (BABG)"^," e2[Q:1/4=89] e[Q:1/4=89]e |[Q:1/4=88] (d2[Q:1/4=86] g4[Q:1/4=84] f2) | %20
w: lu\- * * * ia, Al- le-|lu\- * *|
[Q:1/4=82] !fermata!g8 |] %21
w: ia.|
V:2
!pp! B4 B4 | B4"^," B2 B2- | B2 B2 A2 F2 |"^," G2 G6 | F4 z4 |[M:4/4]!f! G2 G2 (FEFD) | %6
w: Pas- cha|no- strum im\-|* mo- la- tus|est Chri-|stus,|Al- le- lu\- * * *|
"^," G2 G2 G2 (AG) | !fermata!F8 | F3 F F2 AA | (G3 F E4) |"^," ^D2 D2 E2 F2 | E2 E2 F2 F2 | %12
w: ia, Al- le- lu\- *|ia:|i- ta- que e- pu-|le\- * *|mur in a- zy-|mis sin- ce- ri-|
 (E2 A4 G2) |"^," F2 F2 G2 G2 | (F2 G4 F2 | G8) | !fermata!F4!ff! d2 d2 | (BABG) A4 | z4 c2 c2 | %19
w: ta\- * *|tis et ve- ri-|ta\- * *||tis, Al- le-|lu\- * * * ia,|Al- le-|
 (BABG A4) | !fermata!B8 |] %21
w: lu\- * * * *|ia.|
V:3
!pp! G4 G4 | E4"^," G2 G2- | G2 G2 F2 D2 |"^," G2 (G4 C2) | D4 z4 |[M:4/4] z4!f! D2 D2 | %6
w: Pas- cha|no- strum im\-|* mo- la- tus|est Chri\- *|stus,|Al- le-|
 (B,A,B,G, C4) | !fermata!D8 | D3 D D2 FF | (GFED C4) |"^," B,2 B,2 ^C2 ^D2 | E2 E2 =D2 D2 | %12
w: lu\- * * * *|ia:|i- ta- que e- pu-|le\- * * * *|mur in a- zy-|mis sin- ce- ri-|
 (C3 B, A,2 B,C) |"^," D2 D2 G2 E2 | (D2 G,2 D4 | E8) | !fermata!D4 z4 |!ff! G2 G2 (FEFD) | %18
w: ta\- * * * *|tis et ve- ri-|ta\- * *||tis,|Al- le- lu\- * * *|
"^," G4 C2 C2 | (G3 E C2 D2) | !fermata![G,G]8 |] %21
w: ia, Al- le-|lu\- * * *|ia.|

